build/images/icons/email.svg

<svg fill="none" height="36" viewBox="0 0 48 36" width="48" xmlns="http://www.w3.org/2000/svg"><g fill="#10182e"><path d="m46.6897 33-16.57-14.9c-.0731-.0665-.1315-.1476-.1714-.238-.04-.0904-.0606-.1882-.0606-.287s.0206-.1966.0606-.287c.0399-.0904.0983-.1715.1714-.238l16.57-14.9c.1005-.09105.2253-.15096.3592-.17242.1339-.02147.2712-.00358.3951.0515s.2292.14498.303.25876.1129.24655.1127.38216v29.82c-.0017.1348-.0422.2662-.1168.3785-.0745.1123-.1799.2006-.3034.2545-.1236.0538-.2601.0709-.3931.0491-.1329-.0218-.2568-.0816-.3567-.1721zm-13.56-14.9 11.55 10.4c.0992.09.2222.1496.3543.1718s.2678.006.391-.0466c.1232-.0527.2287-.1396.304-.2504s.1172-.2409.1207-.3748v-20.82c.0002-.13562-.0389-.26838-.1127-.38216s-.1791-.20368-.303-.25876-.2612-.07297-.3951-.0515c-.1339.02146-.2587.08136-.3592.17242l-11.55 10.39c-.0731.0665-.1315.1476-.1714.238-.04.0904-.0606.1882-.0606.287s.0206.1966.0606.287c.0399.0904.0983.1715.1714.238z"/><path d="m45.0005 35.15h-42.17997c-.14167.0003-.28008-.0425-.39695-.1225-.11688-.0801-.20672-.1937-.25764-.3259-.05093-.1322-.06055-.2767-.02759-.4145s.10694-.2623.21218-.3571l16.64997-14.93c.1288-.1167.2963-.1813.47-.1813.1738 0 .3413.0646.47.1813l3.57 3.22c.1288.1166.2963.1812.47.1812.1738 0 .3413-.0646.47-.1812l3.55-3.22c.1288-.1167.2963-.1813.47-.1813.1738 0 .3413.0646.47.1813l16.6 14.94c.1071.0994.1803.2298.2095.3729.0292.1432.0129.2919-.0466.4253-.0596.1334-.1593.2448-.2854.3186-.126.0739-.272.1065-.4175.0932zm-36.99997-2h31.79997c.1417.0003.2801-.0425.397-.1225.1169-.0801.2067-.1937.2576-.3259s.0606-.2767.0276-.4145-.1069-.2623-.2122-.3571l-11.36-10.24c-.1287-.1167-.2962-.1813-.47-.1813-.1737 0-.3412.0646-.47.1813l-3.57 3.22c-.1287.1166-.2962.1812-.47.1812-.1737 0-.3412-.0646-.47-.1812l-3.57-3.22c-.1287-.1167-.2962-.1813-.47-.1813-.1737 0-.3412.0646-.47.1813l-11.35997 10.23c-.10524.0948-.17922.2193-.21218.3571s-.02334.2823.02759.4145c.05092.1322.14076.2458.25764.3259.11687.0801.25529.1228.39695.1225z"/><path d="m23.4605 20.23-21.10997-19.01c-.10524-.09483-.17922-.21937-.21218-.357143-.03296-.137776-.02334-.282309.02759-.414501.05092-.132192.14076-.245822.25764-.325875.11687-.0800526.25528-.12276023.39695-.12247963h42.17997c.1417-.0002806.2801.04242703.397.12247963.1169.080053.2067.193683.2576.325875s.0606.276725.0276.414501c-.033.137773-.1069.262313-.2122.357143l-21.11 19c-.1249.1072-.2836.167-.4482.1688-.1645.0019-.3245-.0544-.4518-.1588zm-15.86997-17 15.86997 14.29c.1288.1167.2963.1813.47.1813.1738 0 .3413-.0646.47-.1813l15.87-14.29c.109-.094.1864-.21933.2216-.3589.0352-.13958.0266-.28661-.0248-.42108-.0514-.13446-.143-.24982-.2623-.33034-.1193-.08053-.2606-.12232-.4045-.11968h-31.73997c-.14392-.00264-.28516.03915-.40448.11968-.11931.08052-.21089.19588-.26227.33034-.05138.13447-.06006.2815-.02485.42108.0352.13957.11259.2649.2216.3589z"/><path d="m.00000112 32.49v-29.82c-.00024266-.13561.03891498-.26838.11271288-.38216.073799-.11378.17906-.20368.302989-.25876s.26119-.07297.395098-.0515c.133909.02146.258699.08137.359199.17242l16.56 14.9c.0731.0665.1315.1476.1714.238.04.0904.0606.1882.0606.287s-.0206.1966-.0606.287c-.0399.0904-.0983.1715-.1714.238l-16.56 14.9c-.09987.0905-.223743.1503-.356743.1721s-.26947.0047-.39302-.0491c-.12355-.0539-.228925-.1422-.303471-.2545-.0745449-.1123-.11508988-.2437-.11676488-.3785zm1.99999888-25.31v20.82c-.00221.1365.03553.2706.10856.3859s.17818.2067.30251.2631c.12432.0563.2624.075.39724.0539s.26056-.0812.36169-.1729l11.56-10.43c.0731-.0665.1315-.1476.1714-.238.04-.0904.0606-.1882.0606-.287s-.0206-.1966-.0606-.287c-.0399-.0904-.0983-.1715-.1714-.238l-11.55-10.39c-.10012-.09435-.22583-.15711-.36142-.18043s-.27504-.00617-.40094.04931-.23265.14683-.30693.26263-.11279.25093-.11071.38849z"/></g></svg>

<svg fill="none" height="36" width="48" xmlns="http://www.w3.org/2000/svg"><g fill="#10182e"><path d="M46.69 33L30.12 18.1a.709.709 0 010-1.05l16.57-14.9a.7.7 0 011.17.52v29.82a.7.7 0 01-1.17.51zM33.13 18.1l11.55 10.4a.7.7 0 001.17-.5V7.18a.7.7 0 00-1.17-.52L33.13 17.05a.709.709 0 000 1.05zM45 35.15H2.82a.7.7 0 01-.47-1.22L19 19a.7.7 0 01.94 0l3.57 3.22a.7.7 0 00.94 0L28 19a.7.7 0 01.94 0l16.6 14.94a.7.7 0 01-.54 1.21zm-37-2h31.8a.7.7 0 00.47-1.22L28.91 21.69a.7.7 0 00-.94 0l-3.57 3.22a.7.7 0 01-.94 0l-3.57-3.22a.7.7 0 00-.94 0L7.59 31.92a.7.7 0 00.47 1.22z"/><path d="M23.46 20.23L2.35 1.22A.7.7 0 012.82 0H45a.7.7 0 01.47 1.22l-21.11 19a.7.7 0 01-.9.01zm-15.87-17l15.87 14.29a.7.7 0 00.94 0L40.27 3.23A.7.7 0 0039.8 2H8.06a.7.7 0 00-.47 1.23zM0 32.49V2.67a.7.7 0 011.17-.52l16.56 14.9a.709.709 0 010 1.05L1.17 33A.7.7 0 010 32.49zM2 7.18V28a.7.7 0 001.17.53L14.73 18.1a.709.709 0 000-1.05L3.18 6.66A.7.7 0 002 7.18z"/></g></svg>
